frontend/src/assets/icons/annotation-dots.svg

<svg width="24" height="24" viewBox="0 0 24 24" fill="none" xmlns="http://www.w3.org/2000/svg">
<g id="annotation-dots">
<path id="Icon" d="M7.5 10.5H7.51M12 10.5H12.01M16.5 10.5H16.51M9.9 19.2L11.36 21.1467C11.5771 21.4362 11.6857 21.5809 11.8188 21.6327C11.9353 21.678 12.0647 21.678 12.1812 21.6327C12.3143 21.5809 12.4229 21.4362 12.64 21.1467L14.1 19.2C14.3931 18.8091 14.5397 18.6137 14.7185 18.4645C14.9569 18.2656 15.2383 18.1248 15.5405 18.0535C15.7671 18 16.0114 18 16.5 18C17.8978 18 18.5967 18 19.1481 17.7716C19.8831 17.4672 20.4672 16.8831 20.7716 16.1481C21 15.5967 21 14.8978 21 13.5V7.8C21 6.11984 21 5.27976 20.673 4.63803C20.3854 4.07354 19.9265 3.6146 19.362 3.32698C18.7202 3 17.8802 3 16.2 3H7.8C6.11984 3 5.27976 3 4.63803 3.32698C4.07354 3.6146 3.6146 4.07354 3.32698 4.63803C3 5.27976 3 6.11984 3 7.8V13.5C3 14.8978 3 15.5967 3.22836 16.1481C3.53284 16.8831 4.11687 17.4672 4.85195 17.7716C5.40326 18 6.10218 18 7.5 18C7.98858 18 8.23287 18 8.45951 18.0535C8.76169 18.1248 9.04312 18.2656 9.2815 18.4645C9.46028 18.6137 9.60685 18.8091 9.9 19.2ZM8 10.5C8 10.7761 7.77614 11 7.5 11C7.22386 11 7 10.7761 7 10.5C7 10.2239 7.22386 10 7.5 10C7.77614 10 8 10.2239 8 10.5ZM12.5 10.5C12.5 10.7761 12.2761 11 12 11C11.7239 11 11.5 10.7761 11.5 10.5C11.5 10.2239 11.7239 10 12 10C12.2761 10 12.5 10.2239 12.5 10.5ZM17 10.5C17 10.7761 16.7761 11 16.5 11C16.2239 11 16 10.7761 16 10.5C16 10.2239 16.2239 10 16.5 10C16.7761 10 17 10.2239 17 10.5Z" stroke="black" stroke-width="2" stroke-linecap="round" stroke-linejoin="round"/>
</g>
</svg>

<svg xmlns="http://www.w3.org/2000/svg" width="24" height="24" fill="none" viewBox="0 0 24 24">
  <path stroke="#000" stroke-linecap="round" stroke-linejoin="round" stroke-width="2" d="M7.5 10.5h.01m4.49 0h.01m4.49 0h.01M9.9 19.2l1.46 1.947c.217.29.326.434.459.486a.5.5 0 0 0 .362 0c.133-.052.242-.197.459-.486L14.1 19.2c.293-.39.44-.586.619-.735a2 2 0 0 1 .822-.412c.226-.053.47-.053.959-.053 1.398 0 2.097 0 2.648-.228a3 3 0 0 0 1.624-1.624C21 15.597 21 14.898 21 13.5V7.8c0-1.68 0-2.52-.327-3.162a3 3 0 0 0-1.311-1.311C18.72 3 17.88 3 16.2 3H7.8c-1.68 0-2.52 0-3.162.327a3 3 0 0 0-1.311 1.311C3 5.28 3 6.12 3 7.8v5.7c0 1.398 0 2.097.228 2.648a3 3 0 0 0 1.624 1.624C5.403 18 6.102 18 7.5 18c.489 0 .733 0 .96.053a2 2 0 0 1 .821.412c.18.149.326.344.619.735ZM8 10.5a.5.5 0 1 1-1 0 .5.5 0 0 1 1 0Zm4.5 0a.5.5 0 1 1-1 0 .5.5 0 0 1 1 0Zm4.5 0a.5.5 0 1 1-1 0 .5.5 0 0 1 1 0Z"/>
</svg>
